www/assets/icons/merge.svg

<svg xmlns="http://www.w3.org/2000/svg" width="24" height="24" viewBox="0 0 24 24" fill='currentColor'><path d="M6.41 21 5 19.59l4.83-4.83c.75-.75 1.17-1.77 1.17-2.83v-5.1L9.41 8.41 8 7l4-4 4 4-1.41 1.41L13 6.83v5.1c0 1.06.42 2.08 1.17 2.83L19 19.59 17.59 21 12 15.41z"/></svg>

<svg width="24" height="24" viewBox="0 0 24 24" xmlns="http://www.w3.org/2000/svg" fill='currentColor'><path d="M6.41 21L5 19.59L9.83 14.76C10.58 14.01 11 12.99 11 11.93V6.83L9.41 8.41L8 7L12 3L16 7L14.59 8.41L13 6.83V11.93C13 12.99 13.42 14.01 14.17 14.76L19 19.59L17.59 21L12 15.41L6.41 21Z"/></svg>
